icons/bhi_addcard.svg

<svg xmlns="http://www.w3.org/2000/svg" viewBox="0 0 512 512" enable-background="new 0 0 512 512"><path fill="#010101" d="M64 95.5h-64v369.1c0 25.6 21.3 46.9 46.9 46.9h369.1v-63.5h-352v-352.5zM465.1 0h-322.2c-25.6 0-46.9 21.3-46.9 46.9v322.1c0 25.6 21.3 46.9 46.9 46.9h322.1c25.6 0 46.9-21.3 46.9-46.9v-324.2c-2-23.5-23.4-44.8-46.8-44.8zm-47 230.4h-91.7v91.7h-46.9v-91.7h-91.7v-44.8h91.7v-93.9h46.9v91.7h91.7v47z"/></svg>

<?xml version="1.0" encoding="utf-8"?>
<!-- Generator: Adobe Illustrator 19.2.0, SVG Export Plug-In . SVG Version: 6.00 Build 0)  -->
<svg version="1.1" id="Layer_1" xmlns="http://www.w3.org/2000/svg" xmlns:xlink="http://www.w3.org/1999/xlink" x="0px" y="0px"
	 viewBox="0 0 512 512" enable-background="new 0 0 512 512" xml:space="preserve">
<path fill="#010101" d="M64,95.5H0v369.1c0,25.6,21.3,46.9,46.9,46.9H416V448H64V95.5z"/>
<path fill="#010101" d="M465.1,0H142.9C117.3,0,96,21.3,96,46.9v322.1c0,25.6,21.3,46.9,46.9,46.9h322.1c25.6,0,46.9-21.3,46.9-46.9
	V44.8C509.9,21.3,488.5,0,465.1,0z M418.1,230.4h-91.7v91.7h-46.9v-91.7h-91.7v-44.8h91.7V91.7h46.9v91.7h91.7V230.4z"/>
</svg>
